src/components/atoms/Icon/icons/search-caption.svg

<svg xmlns="http://www.w3.org/2000/svg" xmlns:xlink="http://www.w3.org/1999/xlink" width="20" height="20" viewBox="0 0 20 20">
  <defs>
    <path id="search-caption-a" d="M14.1497999,12.6918239 L13.3819325,12.6918239 L13.109777,12.4293882 C14.0623213,11.3213265 14.6357919,9.88279017 14.6357919,8.31789594 C14.6357919,4.82847341 11.8073185,2 8.31789594,2 C4.82847341,2 2,4.82847341 2,8.31789594 C2,11.8073185 4.82847341,14.6357919 8.31789594,14.6357919 C9.88279017,14.6357919 11.3213265,14.0623213 12.4293882,13.109777 L12.6918239,13.3819325 L12.6918239,14.1497999 L17.5517439,19 L19,17.5517439 L14.1497999,12.6918239 Z M8.31789594,12.6918239 C5.8976558,12.6918239 3.94396798,10.7381361 3.94396798,8.31789594 C3.94396798,5.8976558 5.8976558,3.94396798 8.31789594,3.94396798 C10.7381361,3.94396798 12.6918239,5.8976558 12.6918239,8.31789594 C12.6918239,10.7381361 10.7381361,12.6918239 8.31789594,12.6918239 Z"/>
  </defs>
  <g fill="none" fill-rule="evenodd">
    <mask id="search-caption-b" fill="#fff">
      <use xlink:href="#search-caption-a"/>
    </mask>
    <use fill="#000" fill-rule="nonzero" xlink:href="#search-caption-a"/>
    <g fill="currentcolor" fill-rule="nonzero" mask="url(#search-caption-b)">
      <rect width="20" height="20"/>
    </g>
  </g>
</svg>

<svg xmlns="http://www.w3.org/2000/svg" xmlns:xlink="http://www.w3.org/1999/xlink" width="20" height="20"><defs><path id="search-caption-a" d="M14.15 12.692h-.768l-.272-.263a6.29 6.29 0 0 0 1.526-4.111 6.318 6.318 0 1 0-6.318 6.318 6.29 6.29 0 0 0 4.111-1.526l.263.272v.768l4.86 4.85L19 17.552l-4.85-4.86zm-5.832 0a4.368 4.368 0 0 1-4.374-4.374 4.368 4.368 0 0 1 4.374-4.374 4.368 4.368 0 0 1 4.374 4.374 4.368 4.368 0 0 1-4.374 4.374z"/></defs><g fill="none" fill-rule="evenodd"><mask id="search-caption-b" fill="#fff"><use xlink:href="#search-caption-a"/></mask><use fill="#000" fill-rule="nonzero" xlink:href="#search-caption-a"/><g fill="currentcolor" fill-rule="nonzero" mask="url(#search-caption-b)"><path d="M0 0h20v20H0z"/></g></g></svg>
